img/svg/measuring.svg

<svg width="38.000000" height="26.000000" viewBox="0 0 38 26" fill="none" xmlns="http://www.w3.org/2000/svg" xmlns:xlink="http://www.w3.org/1999/xlink">
	<desc>
			Created with Pixso.
	</desc>
	<defs/>
	<path id="Shape" d="M37.1836 19.1299L23.6699 19.1299L23.6699 15.312L25.8584 15.312C26.1738 15.312 26.4463 15.1824 26.625 14.9471C26.811 14.702 26.8774 14.367 26.8125 14.0052L26.0508 9.70825C25.9487 9.13581 25.5547 8.75128 25.0703 8.75128L23.0581 8.75128C21.4839 3.67052 17.0479 0 11.835 0C5.30908 0 0 5.75199 0 12.8221C0 19.8922 5.30908 25.6442 11.835 25.6442L22.6494 25.6442C23.2124 25.6442 23.6699 25.1489 23.6699 24.54L23.6699 23.4332L28.644 23.4332C28.9517 23.4332 29.2007 23.1627 29.2007 22.8288C29.2007 22.495 28.9517 22.2245 28.644 22.2245L23.6699 22.2245L23.6699 20.3387L36.8867 20.3387L36.8867 22.2245L30.9102 22.2245C30.603 22.2245 30.3535 22.495 30.3535 22.8288C30.3535 23.1627 30.603 23.4332 30.9102 23.4332L36.8867 23.4332L36.8867 25.3956C36.8867 25.7295 37.1357 26 37.4434 26C37.751 26 38 25.7295 38 25.3956L38 20.0156C38 19.5272 37.6338 19.1299 37.1836 19.1299ZM1.12744 13.4265L3.15576 13.4265L3.22852 13.427C3.24219 13.4271 3.25684 13.4273 3.27148 13.4273C3.42188 13.4273 3.62744 13.4122 3.79785 13.2245C3.98242 13.0209 3.97656 12.7793 3.97363 12.6495C3.97266 12.6075 3.97168 12.5641 3.97363 12.507C4.02832 10.8882 4.50342 9.33025 5.34814 8.00148C5.52246 7.72678 5.45898 7.35039 5.20605 7.16078C4.95312 6.97117 4.60596 7.04023 4.43164 7.31493C3.50928 8.76643 2.97217 10.4569 2.87207 12.2177L1.12744 12.2177C1.40918 6.29357 5.80859 1.52861 11.2783 1.22418L11.2783 3.11355C9.5249 3.22918 7.86084 3.89099 6.45166 5.03539C6.20557 5.23523 6.15527 5.61404 6.33936 5.88132C6.44873 6.04007 6.61572 6.12371 6.78516 6.12371C6.90137 6.12371 7.01855 6.08455 7.11816 6.00332C8.40479 4.9586 9.93457 4.37302 11.5425 4.30976C11.5952 4.30765 11.6367 4.30866 11.6699 4.30945L11.6729 4.30952L11.6753 4.30957C11.7969 4.31193 12.019 4.31626 12.2051 4.11669C12.395 3.91325 12.3931 3.67147 12.3921 3.49484L12.3921 3.49477L12.3916 1.22418C18.0459 1.53901 22.5566 6.62065 22.5566 12.822L22.5566 21.3362L12.2622 21.3362C11.7197 21.3362 11.2783 21.8149 11.2783 22.4032L11.2783 24.4199C5.80908 24.1155 1.40967 19.3506 1.12744 13.4265ZM25.6963 14.1033L24.9614 9.9599L23.3721 9.9599C23.5669 10.8805 23.6699 11.8386 23.6699 12.8221L23.6699 14.1033L25.6963 14.1033ZM12.3916 24.4355L22.5566 24.4355L22.5566 22.545L12.3916 22.545L12.3916 24.4355Z" clip-rule="evenodd" fill="#000000" fill-opacity="1.000000" fill-rule="evenodd"/>
	<path id="Shape" d="M17.1982 19.9333L11.876 19.9333C8.3833 19.9333 5.5415 17.017 5.5415 13.4322C5.5415 9.84874 8.3833 6.93335 11.876 6.93335C15.3677 6.93335 18.208 9.84882 18.208 13.4322L18.208 18.8937C18.208 19.467 17.7554 19.9333 17.1982 19.9333ZM17.0825 13.4322C17.0825 10.487 14.7471 8.09083 11.876 8.09083C9.00391 8.09083 6.66699 10.487 6.66699 13.4322C6.66699 16.3787 9.00391 18.7759 11.876 18.7759L17.0825 18.7759L17.0825 13.4322Z" clip-rule="evenodd" fill="#000000" fill-opacity="1.000000" fill-rule="evenodd"/>
	<path id="Shape" d="M13.8984 15.5999L9.85156 15.5999C9.22119 15.5999 8.7085 15.1112 8.7085 14.5102L8.7085 12.354C8.7085 11.7544 9.22119 11.2666 9.85156 11.2666L13.8984 11.2666C14.5288 11.2666 15.042 11.7544 15.042 12.354L15.042 14.5102C15.042 15.1111 14.5288 15.5999 13.8984 15.5999ZM13.7705 12.4773L9.97998 12.4773L9.97998 14.3893L13.7705 14.3893L13.7705 12.4773Z" clip-rule="evenodd" fill="#000000" fill-opacity="1.000000" fill-rule="evenodd"/>
</svg>

<svg width="38" height="26" fill="none" xmlns="http://www.w3.org/2000/svg"><path d="M37.184 19.13H23.67v-3.818h2.188c.316 0 .588-.13.767-.365.186-.245.252-.58.188-.942l-.762-4.297c-.102-.572-.496-.957-.98-.957h-2.013C21.484 3.671 17.048 0 11.835 0 5.309 0 0 5.752 0 12.822c0 7.07 5.31 12.822 11.835 12.822h10.814c.563 0 1.02-.495 1.02-1.104v-1.107h4.975c.308 0 .557-.27.557-.604 0-.334-.25-.605-.557-.605H23.67V20.34h13.217v1.886H30.91c-.307 0-.556.27-.556.604 0 .334.249.604.556.604h5.977v1.963c0 .334.249.604.556.604.308 0 .557-.27.557-.604v-5.38c0-.489-.366-.886-.816-.886zM1.127 13.427h2.144c.15 0 .356-.015.527-.202.184-.204.179-.446.176-.575a2.304 2.304 0 010-.143 8.96 8.96 0 011.374-4.506.638.638 0 00-.142-.84.53.53 0 00-.774.154 10.22 10.22 0 00-1.56 4.903H1.127C1.41 6.294 5.81 1.528 11.278 1.224v1.89c-1.753.115-3.417.777-4.826 1.921a.64.64 0 00-.113.846.525.525 0 00.779.122c1.287-1.044 2.817-1.63 4.425-1.693a1.77 1.77 0 01.127 0h.005c.122.002.344.006.53-.193.19-.204.188-.446.187-.622v-2.27c5.654.314 10.165 5.396 10.165 11.597v8.514H12.262c-.542 0-.984.479-.984 1.067v2.017c-5.469-.305-9.868-5.07-10.15-10.994zm24.57.676L24.96 9.96h-1.589c.195.92.298 1.879.298 2.862v1.281h2.026zM12.391 24.436h10.165v-1.891H12.392v1.89z" clip-rule="evenodd" fill="#000" fill-rule="evenodd"/><path d="M17.198 19.933h-5.322c-3.493 0-6.334-2.916-6.334-6.5s2.841-6.5 6.334-6.5c3.492 0 6.332 2.916 6.332 6.5v5.46c0 .574-.453 1.04-1.01 1.04zm-.116-6.5c0-2.946-2.335-5.342-5.206-5.342-2.872 0-5.209 2.396-5.209 5.341 0 2.947 2.337 5.344 5.209 5.344h5.207v-5.344z" clip-rule="evenodd" fill="#000" fill-rule="evenodd"/><path d="M13.898 15.6H9.852c-.63 0-1.143-.489-1.143-1.09v-2.156c0-.6.512-1.087 1.143-1.087h4.046c.63 0 1.144.487 1.144 1.087v2.156c0 .601-.513 1.09-1.144 1.09zm-.127-3.123H9.98v1.912h3.79v-1.912z" clip-rule="evenodd" fill="#000" fill-rule="evenodd"/></svg>
